src/assets/obucheniye/icons/top.svg

<svg fill="none" height="70" viewBox="0 0 70 70" width="70" xmlns="http://www.w3.org/2000/svg"><g fill="#942fe5"><path d="m35.2971 54.4633c-.573 0-1.0916-.3797-1.286-.9295-.1917-.5405-.0283-1.169.4016-1.5394.4497-.3873 1.106-.4398 1.6059-.1214.4775.3036.7295.8982.6185 1.4628-.1272.6461-.6949 1.1275-1.34 1.1275z"/><path d="m5.49574 29.3174c.34286.0678.68252.0985 1.01684.0985 1.76932 0 3.38964-.8545 4.46472-1.598.4304 1.0914.9463 2.1614 1.5439 3.1943.2158.3725.4396.7357.6719 1.0897-.2703-.011-.5442-.0028-.8209.0273-3.79657.4109-6.25856 4.755-6.36163 4.9399-.2916.523-.22377 1.1784.16769 1.627.13138.1504 3.09698 3.5016 6.63834 3.5016.1949 0 .392-.0103.5901-.0317 2.7862-.3014 4.854-2.7221 5.7977-4.0613 1.3576.8441 2.7915 1.465 4.2607 1.8293.1079.0268.2163.0394.3225.0394.6169 0 1.1766-.4305 1.3277-1.0716.1773-.7517-.2734-1.5083-1.0072-1.6904-3.5761-.8857-6.9422-3.6658-9.2349-7.6271-2.1837-3.773-3.1237-8.0799-2.6078-11.8912 1.3282-.877 4.2345-3.1385 4.6564-6.3573.5378-4.10459-3.2208-7.79829-3.3811-7.95311-.4272-.41357-1.0649-.5011-1.5834-.21772-.1944.10613-4.77128 2.65375-5.30907 6.75774-.42831 3.26699 1.86652 6.27469 2.90098 7.44319-.16449 1.25-.19653 2.5427-.102 3.8496-.64835-.4655-1.39442-.8342-2.23662-1.0011-3.34425-.6619-6.439633 2.2167-6.781428 2.5471-.42777735.413-.549542 1.0602-.302809 1.6067.197067.4371 2.024067 4.2878 5.369387 4.9492zm7.62366 10.0636c-1.5018.1619-3.1376-.9289-4.14537-1.8097.80643-1.0777 2.18377-2.494 3.68547-2.6565 1.5007-.1619 3.1339.9262 4.1416 1.8058-.7386.993-2.0983 2.4891-3.6817 2.6604zm-3.76085-29.0857c.22431-1.71341 1.83285-3.23422 3.00615-4.08817.9127 1.14225 2.0716 3.04271 1.8473 4.75557-.2243 1.7111-1.8286 3.2298-3.0013 4.0854-.8342-1.04-2.08927-2.9443-1.85215-4.7528zm-2.666 12.6692c1.21231.2396 2.25371 1.465 2.88069 2.4371-.92925.657-2.35037 1.4037-3.55947 1.1657-1.21284-.2401-2.25424-1.4655-2.88122-2.4376.93619-.6641 2.34717-1.4054 3.56-1.1652z"/><path d="m46.2124 39.9734c.1063 0 .2147-.0126.3226-.0394 1.4692-.3643 2.9031-.9852 4.2607-1.8293.9437 1.3392 3.0115 3.7599 5.7977 4.0613.1981.0214.3952.0317.5901.0317 3.5413 0 6.5069-3.3512 6.6383-3.5016.3915-.4486.4593-1.104.1677-1.627-.1031-.1849-2.5656-4.529-6.3616-4.9399-.2767-.0295-.5507-.0377-.8214-.0268.2323-.3539.4566-.7177.6724-1.0902.5976-1.0329 1.1135-2.1029 1.5439-3.1943 1.0751.7435 2.6954 1.598 4.4647 1.598.3343 0 .6745-.0307 1.0168-.0985 3.3454-.6614 5.1724-4.5121 5.3694-4.9492.2473-.5465.125-1.1931-.3023-1.6067-.3423-.3299-3.4371-3.2096-6.7819-2.5471-.8427.1669-1.5888.5356-2.2366 1.0011.0945-1.3074.0619-2.5996-.1026-3.8496 1.0345-1.169 3.3293-4.1762 2.9016-7.44319-.5378-4.10454-5.1152-6.65161-5.3096-6.75774-.5186-.28338-1.1562-.19585-1.5835.21772-.1602.15482-3.9189 3.84852-3.3811 7.95311.4219 3.2188 3.3288 5.4798 4.6564 6.3567.5159 3.8119-.424 8.1183-2.6078 11.8913-2.2927 3.9618-5.6583 6.7413-9.2343 7.6276-.7338.1821-1.1851.9387-1.0078 1.6904.1517.6411.7114 1.0716 1.3282 1.0716zm17.0951-17.0089c1.2129-.2397 2.6244.5005 3.5595 1.1646-.6243.9634-1.6716 2.1992-2.8807 2.4382-1.2123.2397-2.6243-.5005-3.5595-1.1641.6243-.9639 1.6716-2.1997 2.8807-2.4387zm-5.9664 11.9503c1.5023.1625 2.8791 1.5794 3.6849 2.656-1.0083.8818-2.6446 1.9721-4.1453 1.8102-1.5023-.1625-2.8796-1.5799-3.6855-2.6565 1.0083-.8819 2.6441-1.9721 4.1459-1.8097zm-1.5531-23.9521c-.2243-1.71341.9352-3.61442 1.8473-4.75557 1.1744.85504 2.7819 2.3753 3.0068 4.08817.2243 1.7111-.932 3.6094-1.8436 4.7511-1.0718-.7774-2.7733-2.2752-3.0105-4.0837z"/><path d="m69.8142 44.8214c-.2446-.4316-.6948-.6969-1.1818-.6969h-28.0032v-32.9665c0-2.77246-2.9132-4.48857-5.6124-4.48857-.9826 0-1.8238.21828-2.4999.64826l-8.1085 5.03401c-1.5557.9562-2.4481 2.6111-2.4481 4.5411 0 2.5525 1.6753 5.3075 4.3819 5.3075.4828 0 1.1888-.0974 1.9552-.5274v22.4516h-26.93027c-.487059 0-.937267.2653-1.181864.6969-.2445969.4311-.2472672.9634-.006409 1.3967l3.805143 6.8442-3.804609 6.8441c-.2413922.4333-.2387219.9656.005875 1.3967.244597.4316.695339.6969 1.181864.6969h67.26527c.487 0 .9372-.2653 1.1818-.6969.2446-.4311.2473-.9634.0064-1.3967l-3.8051-6.8441 3.8051-6.8442c.2409-.4333.2382-.9656-.0064-1.3967zm-39.4853-26.8838c-.4336-.2472-.964-.2341-1.3859.0339l-1.7837 1.1346c-.0128.0082-.0251.0159-.0374.0247-.3429.2341-.6355.2691-.7797.2691-.9432 0-1.6476-1.3239-1.6476-2.5071 0-.6614.1944-1.5701 1.1258-2.1423l8.1208-5.04164c.0054-.00328.0107-.00657.0161-.01039.2328-.1488.5992-.22813 1.059-.22813 1.4526 0 2.878.83586 2.878 1.68766v32.9665h-6.8631v-24.9631c0-.5082-.2686-.9765-.7023-1.2238zm-23.58331 35.8178c.23872-.4295.23872-.9563 0-1.3863l-3.02648-5.4437h10.54809v12.2737h-10.54809zm10.25601.7073h12.1385c.7546 0 1.3672-.6269 1.3672-1.4004 0-.7736-.6126-1.4005-1.3672-1.4005h-12.1385v-4.7364h35.9963v4.7364h-11.4923c-.7552 0-1.3672.6269-1.3672 1.4005 0 .7735.612 1.4004 1.3672 1.4004h11.4923v4.7364h-35.9963zm46.2523-2.0936c-.2387.43-.2387.9568 0 1.3863l3.0265 5.4437h-10.5481v-12.2737h10.5481z"/></g></svg>

<svg width="70" height="70" viewBox="0 0 70 70" fill="none" xmlns="http://www.w3.org/2000/svg">
<path d="M35.2971 54.4633C34.7241 54.4633 34.2055 54.0836 34.0111 53.5338C33.8194 52.9933 33.9828 52.3648 34.4127 51.9944C34.8624 51.6071 35.5187 51.5546 36.0186 51.873C36.4961 52.1766 36.7481 52.7712 36.6371 53.3358C36.5099 53.9819 35.9422 54.4633 35.2971 54.4633Z" fill="#942FE5"/>
<path d="M5.49574 29.3174C5.8386 29.3852 6.17826 29.4159 6.51258 29.4159C8.2819 29.4159 9.90222 28.5614 10.9773 27.8179C11.4077 28.9093 11.9236 29.9793 12.5212 31.0122C12.737 31.3847 12.9608 31.7479 13.1931 32.1019C12.9228 32.0909 12.6489 32.0991 12.3722 32.1292C8.57563 32.5401 6.11364 36.8842 6.01057 37.0691C5.71897 37.5921 5.7868 38.2475 6.17826 38.6961C6.30964 38.8465 9.27524 42.1977 12.8166 42.1977C13.0115 42.1977 13.2086 42.1874 13.4067 42.166C16.1929 41.8646 18.2607 39.4439 19.2044 38.1047C20.562 38.9488 21.9959 39.5697 23.4651 39.934C23.573 39.9608 23.6814 39.9734 23.7876 39.9734C24.4045 39.9734 24.9642 39.5429 25.1153 38.9018C25.2926 38.1501 24.8419 37.3935 24.1081 37.2114C20.532 36.3257 17.1659 33.5456 14.8732 29.5843C12.6895 25.8113 11.7495 21.5044 12.2654 17.6931C13.5936 16.8161 16.4999 14.5546 16.9218 11.3358C17.4596 7.23121 13.701 3.53751 13.5407 3.38269C13.1135 2.96912 12.4758 2.88159 11.9573 3.16497C11.7629 3.2711 7.18602 5.81872 6.64823 9.92271C6.21992 13.1897 8.51475 16.1974 9.54921 17.3659C9.38472 18.6159 9.35268 19.9086 9.44721 21.2155C8.79886 20.75 8.05279 20.3813 7.21059 20.2144C3.86634 19.5525 0.770957 22.4311 0.429162 22.7615C0.00138465 23.1745 -0.12038 23.8217 0.126353 24.3682C0.32342 24.8053 2.15042 28.656 5.49574 29.3174ZM13.1194 39.381C11.6176 39.5429 9.9818 38.4521 8.97403 37.5713C9.78046 36.4936 11.1578 35.0773 12.6595 34.9148C14.1602 34.7529 15.7934 35.841 16.8011 36.7206C16.0625 37.7136 14.7028 39.2097 13.1194 39.381ZM9.35855 10.2953C9.58286 8.58189 11.1914 7.06108 12.3647 6.20713C13.2774 7.34938 14.4363 9.24984 14.212 10.9627C13.9877 12.6738 12.3834 14.1925 11.2107 15.0481C10.3765 14.0081 9.12143 12.1038 9.35855 10.2953ZM6.69255 22.9645C7.90486 23.2041 8.94626 24.4295 9.57324 25.4016C8.64399 26.0586 7.22287 26.8053 6.01377 26.5673C4.80093 26.3272 3.75953 25.1018 3.13255 24.1297C4.06874 23.4656 5.47972 22.7243 6.69255 22.9645Z" fill="#942FE5"/>
<path d="M46.2124 39.9734C46.3187 39.9734 46.4271 39.9608 46.535 39.934C48.0042 39.5697 49.4381 38.9488 50.7957 38.1047C51.7394 39.4439 53.8072 41.8646 56.5934 42.166C56.7915 42.1874 56.9886 42.1977 57.1835 42.1977C60.7248 42.1977 63.6904 38.8465 63.8218 38.6961C64.2133 38.2475 64.2811 37.5921 63.9895 37.0691C63.8864 36.8842 61.4239 32.5401 57.6279 32.1292C57.3512 32.0997 57.0772 32.0915 56.8065 32.1024C57.0388 31.7485 57.2631 31.3847 57.4789 31.0122C58.0765 29.9793 58.5924 28.9093 59.0228 27.8179C60.0979 28.5614 61.7182 29.4159 63.4875 29.4159C63.8218 29.4159 64.162 29.3852 64.5043 29.3174C67.8497 28.656 69.6767 24.8053 69.8737 24.3682C70.121 23.8217 69.9987 23.1751 69.5714 22.7615C69.2291 22.4316 66.1343 19.5519 62.7895 20.2144C61.9468 20.3813 61.2007 20.75 60.5529 21.2155C60.6474 19.9081 60.6148 18.6159 60.4503 17.3659C61.4848 16.1969 63.7796 13.1897 63.3519 9.92271C62.8141 5.81817 58.2367 3.2711 58.0423 3.16497C57.5237 2.88159 56.8861 2.96912 56.4588 3.38269C56.2986 3.53751 52.5399 7.23121 53.0777 11.3358C53.4996 14.5546 56.4065 16.8156 57.7341 17.6925C58.25 21.5044 57.3101 25.8108 55.1263 29.5838C52.8336 33.5456 49.468 36.3251 45.892 37.2114C45.1582 37.3935 44.7069 38.1501 44.8842 38.9018C45.0359 39.5429 45.5956 39.9734 46.2124 39.9734ZM63.3075 22.9645C64.5204 22.7248 65.9319 23.465 66.867 24.1291C66.2427 25.0925 65.1954 26.3283 63.9863 26.5673C62.774 26.807 61.362 26.0668 60.4268 25.4032C61.0511 24.4393 62.0984 23.2035 63.3075 22.9645ZM57.3411 34.9148C58.8434 35.0773 60.2202 36.4942 61.026 37.5708C60.0177 38.4526 58.3814 39.5429 56.8807 39.381C55.3784 39.2185 54.0011 37.8011 53.1952 36.7245C54.2035 35.8426 55.8393 34.7524 57.3411 34.9148ZM55.788 10.9627C55.5637 9.24929 56.7232 7.34828 57.6353 6.20713C58.8097 7.06217 60.4172 8.58243 60.6421 10.2953C60.8664 12.0064 59.7101 13.9047 58.7985 15.0464C57.7267 14.269 56.0252 12.7712 55.788 10.9627Z" fill="#942FE5"/>
<path d="M69.8142 44.8214C69.5696 44.3898 69.1194 44.1245 68.6324 44.1245H40.6292V11.158C40.6292 8.38554 37.716 6.66943 35.0168 6.66943C34.0342 6.66943 33.193 6.88771 32.5169 7.31769L24.4084 12.3517C22.8527 13.3079 21.9603 14.9628 21.9603 16.8928C21.9603 19.4453 23.6356 22.2003 26.3422 22.2003C26.825 22.2003 27.531 22.1029 28.2974 21.6729V44.1245H1.36713C0.880071 44.1245 0.429863 44.3898 0.185266 44.8214C-0.0593309 45.2525 -0.0620012 45.7848 0.178857 46.2181L3.984 53.0623L0.179391 59.9064C-0.0620012 60.3397 -0.0593309 60.872 0.185266 61.3031C0.429863 61.7347 0.880605 62 1.36713 62H68.6324C69.1194 62 69.5696 61.7347 69.8142 61.3031C70.0588 60.872 70.0615 60.3397 69.8206 59.9064L66.0155 53.0623L69.8206 46.2181C70.0615 45.7848 70.0588 45.2525 69.8142 44.8214ZM30.3289 17.9376C29.8953 17.6904 29.3649 17.7035 28.943 17.9715L27.1593 19.1061C27.1465 19.1143 27.1342 19.122 27.1219 19.1308C26.779 19.3649 26.4864 19.3999 26.3422 19.3999C25.399 19.3999 24.6946 18.076 24.6946 16.8928C24.6946 16.2314 24.889 15.3227 25.8204 14.7505L33.9412 9.70886C33.9466 9.70558 33.9519 9.70229 33.9573 9.69847C34.1901 9.54967 34.5565 9.47034 35.0163 9.47034C36.4689 9.47034 37.8943 10.3062 37.8943 11.158V44.1245H31.0312V19.1614C31.0312 18.6532 30.7626 18.1849 30.3289 17.9376ZM6.74559 53.7554C6.98431 53.3259 6.98431 52.7991 6.74559 52.3691L3.71911 46.9254H14.2672V59.1991H3.71911L6.74559 53.7554ZM17.0016 54.4627H29.1401C29.8947 54.4627 30.5073 53.8358 30.5073 53.0623C30.5073 52.2887 29.8947 51.6618 29.1401 51.6618H17.0016V46.9254H52.9979V51.6618H41.5056C40.7504 51.6618 40.1384 52.2887 40.1384 53.0623C40.1384 53.8358 40.7504 54.4627 41.5056 54.4627H52.9979V59.1991H17.0016V54.4627ZM63.2539 52.3691C63.0152 52.7991 63.0152 53.3259 63.2539 53.7554L66.2804 59.1991H55.7323V46.9254H66.2804L63.2539 52.3691Z" fill="#942FE5"/>
</svg>
